client/public/musicFace/icon-search.svg

<svg height="200" viewBox="0 0 1024 1024" width="200" xmlns="http://www.w3.org/2000/svg"><path d="m1001.526404 991.699618c-1.603633-4.877239-1.603633-4.877239-2.864663-7.168175-1.105408-1.983505-2.367902-3.8065-3.959416-5.877894-2.20225-2.866285-5.278617-6.484414-9.343848-11.033986-7.134596-7.98463-17.534447-19.073489-31.316207-33.434053-21.546697-22.451609-43.132642-44.501258-95.562411-97.793512-51.91795-52.772013-73.697837-75.021596-95.054214-97.278535-13.389903-13.95453-23.439441-24.671946-30.093752-32.120096-3.304593-3.698822-5.679503-6.491786-6.966291-8.165045.856634 1.610547.856634 1.610547 2.211418 5.590468 2.108879 7.494693 2.108879 7.494693-6.966863 24.755228 82.243439-79.257958 129.721293-189.186967 129.721293-306.774244 0-233.284954-185.801406-422.399774-414.999057-422.399774-229.197652 0-414.99906 189.11482-414.99906 422.399774 0 233.284953 185.801408 422.399774 414.99906 422.399774 5.024313 0 10.223886-.235388 16.01549-.681878 4.139119-.319095 7.731844-.663515 14.303786-1.340866 13.307237-1.371535 18.153178-1.762235 23.745703-1.762246 9.499025-.000017 24.567291-3.367629 46.992778-9.584892 2.631028-.729427 5.329396-1.490961 8.086281-2.281263 8.500136-2.436691 17.191334-5.039932 25.620753-7.642605 5.063042-1.56327 8.929252-2.783884 11.136041-3.492567 13.247054-4.254123 20.597687-18.633137 16.418101-32.116427-4.179588-13.483289-18.306673-20.965009-31.553728-16.710884-2.038863.654754-5.730185 1.820154-10.602773 3.324619-8.129967 2.510216-16.508709 5.019865-24.655292 7.355206-2.621871.751597-5.181762 1.47405-7.669421 2.163731-17.233636 4.777869-30.68941 7.785103-33.772834 7.78511-7.938562.000015-13.67673.462649-28.813425 2.022743-6.167802.635695-9.443025.949679-13.03513 1.226603-4.614999.355782-8.588019.535643-12.21633.535643-201.416118 0-364.696143-166.191812-364.696143-371.199801s163.280025-371.199801 364.696143-371.199801c201.416117 0 364.69614 166.191812 364.69614 371.199801 0 103.375669-41.69245 199.909303-114.003279 269.595213-9.255336 17.568042-9.255336 17.568042-7.048486 25.632083 1.589333 4.678112 1.589333 4.678112 2.832179 6.923228 1.101284 1.961359 2.361272 3.776394 3.945474 5.836394 2.209927 2.873651 5.292928 6.499352 9.361133 11.052883 7.14592 7.998407 17.548986 19.092843 31.32288 33.447559 21.562891 22.47216 43.408256 44.788631 95.477877 97.714812 52.277967 53.137954 73.800568 75.122897 95.141622 97.360228 13.397506 13.960173 23.444079 24.67235 30.086536 32.106204 3.296058 3.688757 5.660749 6.469881 6.93295 8.125683-.938366-1.752354-.938366-1.752354-2.319309-5.944239-2.071657-8.077129-2.071657-8.077129 8.092424-25.400079-10.607844 9.128045-11.937105 25.280493-2.968992 36.077508 8.968113 10.797014 24.837562 12.14998 35.445406 3.021937 10.356805-17.61635 10.356805-17.61635 8.199456-26.24957z" fill="#82ab74"/></svg>

<?xml version="1.0" standalone="no"?><!DOCTYPE svg PUBLIC "-//W3C//DTD SVG 1.1//EN" "http://www.w3.org/Graphics/SVG/1.1/DTD/svg11.dtd"><svg t="1693239335465" class="icon" viewBox="0 0 1024 1024" version="1.1" xmlns="http://www.w3.org/2000/svg" p-id="3999" xmlns:xlink="http://www.w3.org/1999/xlink" width="200" height="200"><path d="M1001.526404 991.699618C999.922771 986.822379 999.922771 986.822379 998.661741 984.531443 997.556333 982.547938 996.293839 980.724943 994.702325 978.653549 992.500075 975.787264 989.423708 972.169135 985.358477 967.619563 978.223881 959.634933 967.82403 948.546074 954.04227 934.18551 932.495573 911.733901 910.909628 889.684252 858.479859 836.391998 806.561909 783.619985 784.782022 761.370402 763.425645 739.113463 750.035742 725.158933 739.986204 714.441517 733.331893 706.993367 730.0273 703.294545 727.65239 700.501581 726.365602 698.828322 727.222236 700.438869 727.222236 700.438869 728.57702 704.41879 730.685899 711.913483 730.685899 711.913483 721.610157 729.174018 803.853596 649.91606 851.33145 539.987051 851.33145 422.399774 851.33145 189.11482 665.530044 0 436.332393 0 207.134741 0 21.333333 189.11482 21.333333 422.399774 21.333333 655.684727 207.134741 844.799548 436.332393 844.799548 441.356706 844.799548 446.556279 844.56416 452.347883 844.11767 456.487002 843.798575 460.079727 843.454155 466.651669 842.776804 479.958906 841.405269 484.804847 841.014569 490.397372 841.014558 499.896397 841.014541 514.964663 837.646929 537.39015 831.429666 540.021178 830.700239 542.719546 829.938705 545.476431 829.148403 553.976567 826.711712 562.667765 824.108471 571.097184 821.505798 576.160226 819.942528 580.026436 818.721914 582.233225 818.013231 595.480279 813.759108 602.830912 799.380094 598.651326 785.896804 594.471738 772.413515 580.344653 764.931795 567.097598 769.18592 565.058735 769.840674 561.367413 771.006074 556.494825 772.510539 548.364858 775.020755 539.986116 777.530404 531.839533 779.865745 529.217662 780.617342 526.657771 781.339795 524.170112 782.029476 506.936476 786.807345 493.480702 789.814579 490.397278 789.814586 482.458716 789.814601 476.720548 790.277235 461.583853 791.837329 455.416051 792.473024 452.140828 792.787008 448.548723 793.063932 443.933724 793.419714 439.960704 793.599575 436.332393 793.599575 234.916275 793.599575 71.63625 627.407763 71.63625 422.399774 71.63625 217.391785 234.916275 51.199973 436.332393 51.199973 637.74851 51.199973 801.028533 217.391785 801.028533 422.399774 801.028533 525.775443 759.336083 622.309077 687.025254 691.994987 677.769918 709.563029 677.769918 709.563029 679.976768 717.62707 681.566101 722.305182 681.566101 722.305182 682.808947 724.550298 683.910231 726.511657 685.170219 728.326692 686.754421 730.386692 688.964348 733.260343 692.047349 736.886044 696.115554 741.439575 703.261474 749.437982 713.66454 760.532418 727.438434 774.887134 749.001325 797.359294 770.84669 819.675765 822.916311 872.601946 875.194278 925.7399 896.716879 947.724843 918.057933 969.962174 931.455439 983.922347 941.502012 994.634524 948.144469 1002.068378 951.440527 1005.757135 953.805218 1008.538259 955.077419 1010.194061 954.139053 1008.441707 954.139053 1008.441707 952.75811 1004.249822 950.686453 996.172693 950.686453 996.172693 960.850534 978.849743 950.24269 987.977788 948.913429 1004.130236 957.881542 1014.927251 966.849655 1025.724265 982.719104 1027.077231 993.326948 1017.949188 1003.683753 1000.332838 1003.683753 1000.332838 1001.526404 991.699618Z" fill="#82ab74" p-id="4000"></path></svg>
